usr/share/icons/biglinux-icons-material/16/actions/crosshairs.svg

<svg xmlns="http://www.w3.org/2000/svg" viewBox="0 0 16 16">
  <defs id="defs3051">
    <style type="text/css" id="current-color-scheme">
      .ColorScheme-Text {
        color:#dedede;
      }
      </style>
  </defs>
 <path style="fill:currentColor;fill-opacity:1;stroke:none" 
     d="M 7 3 L 7 4.03125 A 4.5 4.5 0 0 0 3.0332031 8 L 2 8 L 2 9 L 3.03125 9 A 4.5 4.5 0 0 0 7 12.966797 L 7 14 L 8 14 L 8 12.96875 A 4.5 4.5 0 0 0 11.966797 9 L 13 9 L 13 8 L 11.96875 8 A 4.5 4.5 0 0 0 8 4.0332031 L 8 3 L 7 3 z M 7 5.0390625 L 7 8 L 4.0410156 8 A 3.5 3.5 0 0 1 7 5.0390625 z M 8 5.0410156 A 3.5 3.5 0 0 1 10.960938 8 L 8 8 L 8 5.0410156 z M 4.0390625 9 L 7 9 L 7 11.958984 A 3.5 3.5 0 0 1 4.0390625 9 z M 8 9 L 10.958984 9 A 3.5 3.5 0 0 1 8 11.960938 L 8 9 z "
     class="ColorScheme-Text"
     />
</svg>

<svg xmlns="http://www.w3.org/2000/svg" viewBox="0 0 16 16"><path d="M7 3v1.031A4.5 4.5 0 0 0 3.033 8H2v1h1.031A4.5 4.5 0 0 0 7 12.967V14h1v-1.031A4.5 4.5 0 0 0 11.967 9H13V8h-1.031A4.5 4.5 0 0 0 8 4.033V3H7zm0 2.04V8H4.041A3.5 3.5 0 0 1 7 5.04zm1 .001A3.5 3.5 0 0 1 10.96 8H8V5.041zM4.04 9H7v2.959A3.5 3.5 0 0 1 4.04 9zM8 9h2.959A3.5 3.5 0 0 1 8 11.96V9z" style="fill:currentColor;fill-opacity:1;stroke:none;color:#dedede"/></svg>
